X: 10633
T: DOUGLASS FAVORITE
C:
%R: reel
B: Elias Howe "The Musician's Companion" Part 1 1842 p.63 #3
S: http://imslp.org/wiki/The_Musician's_Companion_(Howe,_Elias)
Z: 2015 John Chambers <jc:trillian.mit.edu>
N: Final notes lengthened to fix the rhythm.
M: C|
L: 1/8
K: G
% - - - - - - - - - - - - - - - - - - - - - - - - -
|:\
G2g>d edBG | G2g>d edBG | EGBG AGBG | DGBd cBAG |\
G2g>d edBG | G2g>d edBG | gfgd ecAF | G2G2 G4  :|
|:\
B3c   d2d2 | cBcd  e2e2 | A3B  cBcA | Ggfa g2g2 |\
dBdg  eceg | fdfa  gfge | dBdg ecAF | G2G2 G4  :|
% - - - - - - - - - - - - - - - - - - - - - - - - -


